X: 34249
T: Reestit Mutton
R: reel
M: 4/4
K: Dmajor
c|dDDE FDAD|BdAD FDDc|BEEF GEBE|cdBe cAAc|
dDDE FDAD|BGBc dDAD|FDEF GEFG|ABcA dDAf|
fddf adfd|adfd fddf|geef bege|bege cAAc|
fddf adfd|cdec FDDF|EFGA Bcde|faef dBBA||

